static/card-icons/sketch.svg

<svg height="682.66669" viewBox="0 0 682.66669 682.66669" width="682.66669" xmlns="http://www.w3.org/2000/svg"><g style="fill:none;stroke:#000;stroke-width:30;stroke-linecap:round;stroke-linejoin:round;stroke-miterlimit:10" transform="matrix(1.3333333 0 0 -1.3333333 0 682.66667)"><path d="m0 0-65.98-54.282 14.019 84.282 110 190.525 51.961-30z" transform="translate(321.9805 275.4746)"/><path d="m0 0 51.961-30" transform="translate(270.0195 305.4746)"/><path d="m166 137h-90v360h90z"/><path d="m0 0h30" transform="translate(76 437)"/><path d="m0 0h30" transform="translate(76 377)"/><path d="m0 0h30" transform="translate(76 317)"/><path d="m0 0h30" transform="translate(76 257)"/><path d="m0 0h30" transform="translate(76 197)"/><path d="m0 0h-75.146l75.146 75.146zm-220-60h280v280z" transform="translate(376 75)"/><path d="m0 0h-61v-360h201" transform="translate(76 436)"/><path d="m0 0h-179.378" transform="translate(345.3779 436)"/><path d="m0 0h61v360h-82.34" transform="translate(436 76)"/></g></svg>

<?xml version="1.0" encoding="UTF-8" standalone="no"?>
<!-- Created with Inkscape (http://www.inkscape.org/) -->

<svg
   version="1.1"
   id="svg663"
   xml:space="preserve"
   width="682.66669"
   height="682.66669"
   viewBox="0 0 682.66669 682.66669"
   xmlns="http://www.w3.org/2000/svg"
   xmlns:svg="http://www.w3.org/2000/svg"><defs
     id="defs667"><clipPath
       clipPathUnits="userSpaceOnUse"
       id="clipPath677"><path
         d="M 0,512 H 512 V 0 H 0 Z"
         id="path675" /></clipPath><clipPath
       clipPathUnits="userSpaceOnUse"
       id="clipPath693"><path
         d="M 0,512 H 512 V 0 H 0 Z"
         id="path691" /></clipPath><clipPath
       clipPathUnits="userSpaceOnUse"
       id="clipPath723"><path
         d="M 0,512 H 512 V 0 H 0 Z"
         id="path721" /></clipPath><clipPath
       clipPathUnits="userSpaceOnUse"
       id="clipPath743"><path
         d="M 0,512 H 512 V 0 H 0 Z"
         id="path741" /></clipPath></defs><g
     id="g669"
     transform="matrix(1.3333333,0,0,-1.3333333,0,682.66667)"><g
       id="g671"><g
         id="g673"
         clipPath="url(#clipPath677)"><g
           id="g679"
           transform="translate(321.9805,275.4746)"><path
             d="M 0,0 -65.98,-54.282 -51.961,30 l 110,190.525 51.961,-30 z"
             style="fill:none;stroke:#000000;stroke-width:30;stroke-linecap:round;stroke-linejoin:round;stroke-miterlimit:10;stroke-dasharray:none;stroke-opacity:1"
             id="path681" /></g></g></g><g
       id="g683"
       transform="translate(270.0195,305.4746)"><path
         d="M 0,0 51.961,-30"
         style="fill:none;stroke:#000000;stroke-width:30;stroke-linecap:round;stroke-linejoin:round;stroke-miterlimit:10;stroke-dasharray:none;stroke-opacity:1"
         id="path685" /></g><g
       id="g687"><g
         id="g689"
         clipPath="url(#clipPath693)"><path
           d="M 166,137 H 76 v 360 h 90 z"
           style="fill:none;stroke:#000000;stroke-width:30;stroke-linecap:round;stroke-linejoin:round;stroke-miterlimit:10;stroke-dasharray:none;stroke-opacity:1"
           id="path695" /></g></g><g
       id="g697"
       transform="translate(76,437)"><path
         d="M 0,0 H 30"
         style="fill:none;stroke:#000000;stroke-width:30;stroke-linecap:round;stroke-linejoin:round;stroke-miterlimit:10;stroke-dasharray:none;stroke-opacity:1"
         id="path699" /></g><g
       id="g701"
       transform="translate(76,377)"><path
         d="M 0,0 H 30"
         style="fill:none;stroke:#000000;stroke-width:30;stroke-linecap:round;stroke-linejoin:round;stroke-miterlimit:10;stroke-dasharray:none;stroke-opacity:1"
         id="path703" /></g><g
       id="g705"
       transform="translate(76,317)"><path
         d="M 0,0 H 30"
         style="fill:none;stroke:#000000;stroke-width:30;stroke-linecap:round;stroke-linejoin:round;stroke-miterlimit:10;stroke-dasharray:none;stroke-opacity:1"
         id="path707" /></g><g
       id="g709"
       transform="translate(76,257)"><path
         d="M 0,0 H 30"
         style="fill:none;stroke:#000000;stroke-width:30;stroke-linecap:round;stroke-linejoin:round;stroke-miterlimit:10;stroke-dasharray:none;stroke-opacity:1"
         id="path711" /></g><g
       id="g713"
       transform="translate(76,197)"><path
         d="M 0,0 H 30"
         style="fill:none;stroke:#000000;stroke-width:30;stroke-linecap:round;stroke-linejoin:round;stroke-miterlimit:10;stroke-dasharray:none;stroke-opacity:1"
         id="path715" /></g><g
       id="g717"><g
         id="g719"
         clipPath="url(#clipPath723)"><g
           id="g725"
           transform="translate(376,75)"><path
             d="M 0,0 H -75.146 L 0,75.146 Z M -220,-60 H 60 v 280 z"
             style="fill:none;stroke:#000000;stroke-width:30;stroke-linecap:round;stroke-linejoin:round;stroke-miterlimit:10;stroke-dasharray:none;stroke-opacity:1"
             id="path727" /></g><g
           id="g729"
           transform="translate(76,436)"><path
             d="M 0,0 H -61 V -360 H 140"
             style="fill:none;stroke:#000000;stroke-width:30;stroke-linecap:round;stroke-linejoin:round;stroke-miterlimit:10;stroke-dasharray:none;stroke-opacity:1"
             id="path731" /></g></g></g><g
       id="g733"
       transform="translate(345.3779,436)"><path
         d="M 0,0 H -179.378"
         style="fill:none;stroke:#000000;stroke-width:30;stroke-linecap:round;stroke-linejoin:round;stroke-miterlimit:10;stroke-dasharray:none;stroke-opacity:1"
         id="path735" /></g><g
       id="g737"><g
         id="g739"
         clipPath="url(#clipPath743)"><g
           id="g745"
           transform="translate(436,76)"><path
             d="M 0,0 H 61 V 360 H -21.34"
             style="fill:none;stroke:#000000;stroke-width:30;stroke-linecap:round;stroke-linejoin:round;stroke-miterlimit:10;stroke-dasharray:none;stroke-opacity:1"
             id="path747" /></g></g></g></g></svg>
